svg/color/gpx.svg

<?xml version="1.0" encoding="UTF-8" ?>
<!DOCTYPE svg PUBLIC "-//W3C//DTD SVG 1.1//EN" "http://www.w3.org/Graphics/SVG/1.1/DTD/svg11.dtd">
<svg width="250pt" height="250pt" viewBox="0 0 250 250" version="1.1" xmlns="http://www.w3.org/2000/svg">
<g id="#ffffffff">
<path fill="#ffffff" opacity="1.00" d=" M 0.00 0.00 L 250.00 0.00 L 250.00 250.00 L 0.00 250.00 L 0.00 0.00 M 36.46 66.31 C 36.45 74.07 36.44 81.82 36.47 89.58 C 75.47 89.69 114.49 89.81 153.48 89.52 C 158.54 81.72 164.19 74.30 169.05 66.37 C 153.04 65.97 137.00 66.82 121.00 65.79 C 94.99 65.75 68.98 65.81 42.98 65.75 C 40.79 65.78 38.63 66.05 36.46 66.31 M 197.33 66.39 C 191.98 74.13 186.51 81.80 181.33 89.67 C 192.06 89.62 202.79 89.79 213.53 89.58 C 213.56 81.85 213.54 74.12 213.55 66.39 C 208.14 66.21 202.73 66.18 197.33 66.39 M 36.50 113.53 C 36.40 121.18 36.51 128.84 36.41 136.50 C 64.60 136.76 92.81 136.72 121.00 136.52 C 126.65 129.12 131.65 121.24 136.87 113.53 C 103.42 113.49 69.96 113.50 36.50 113.53 M 165.35 113.51 C 162.17 117.04 159.84 121.21 157.08 125.05 C 154.58 128.77 151.57 132.21 149.96 136.45 C 171.16 136.81 192.38 136.72 213.59 136.50 C 213.49 128.84 213.60 121.18 213.50 113.52 C 197.45 113.49 181.40 113.51 165.35 113.51 M 36.47 160.42 C 36.44 168.18 36.45 175.94 36.46 183.70 C 47.59 184.85 58.83 183.94 70.00 184.22 C 76.17 183.93 82.49 184.94 88.57 183.61 C 94.57 176.33 99.49 168.16 104.85 160.37 C 82.06 160.33 59.26 160.24 36.47 160.42 M 133.27 160.36 C 127.53 167.68 122.59 175.61 117.29 183.25 C 120.33 184.66 123.76 184.17 127.00 184.25 C 153.68 184.20 180.35 184.22 207.02 184.25 C 209.20 184.22 211.37 183.95 213.54 183.69 C 213.55 175.93 213.56 168.17 213.53 160.42 C 186.78 160.24 160.02 160.34 133.27 160.36 Z" />
</g>
<g id="#f4b12eff">
<path fill="#f4b12e" opacity="1.00" d=" M 36.46 66.31 C 38.63 66.05 40.79 65.78 42.98 65.75 C 68.98 65.81 94.99 65.75 121.00 65.79 C 137.00 66.82 153.04 65.97 169.05 66.37 C 164.19 74.30 158.54 81.72 153.48 89.52 C 114.49 89.81 75.47 89.69 36.47 89.58 C 36.44 81.82 36.45 74.07 36.46 66.31 Z" />
<path fill="#f4b12e" opacity="1.00" d=" M 197.33 66.39 C 202.73 66.18 208.14 66.21 213.55 66.39 C 213.54 74.12 213.56 81.85 213.53 89.58 C 202.79 89.79 192.06 89.62 181.33 89.67 C 186.51 81.80 191.98 74.13 197.33 66.39 Z" />
<path fill="#f4b12e" opacity="1.00" d=" M 36.50 113.53 C 69.96 113.50 103.42 113.49 136.87 113.53 C 131.65 121.24 126.65 129.12 121.00 136.52 C 92.81 136.72 64.60 136.76 36.41 136.50 C 36.51 128.84 36.40 121.18 36.50 113.53 Z" />
<path fill="#f4b12e" opacity="1.00" d=" M 165.35 113.51 C 181.40 113.51 197.45 113.49 213.50 113.52 C 213.60 121.18 213.49 128.84 213.59 136.50 C 192.38 136.72 171.16 136.81 149.96 136.45 C 151.57 132.21 154.58 128.77 157.08 125.05 C 159.84 121.21 162.17 117.04 165.35 113.51 Z" />
<path fill="#f4b12e" opacity="1.00" d=" M 36.47 160.42 C 59.26 160.24 82.06 160.33 104.85 160.37 C 99.49 168.16 94.57 176.33 88.57 183.61 C 82.49 184.94 76.17 183.93 70.00 184.22 C 58.83 183.94 47.59 184.85 36.46 183.70 C 36.45 175.94 36.44 168.18 36.47 160.42 Z" />
<path fill="#f4b12e" opacity="1.00" d=" M 133.27 160.36 C 160.02 160.34 186.78 160.24 213.53 160.42 C 213.56 168.17 213.55 175.93 213.54 183.69 C 211.37 183.95 209.20 184.22 207.02 184.25 C 180.35 184.22 153.68 184.20 127.00 184.25 C 123.76 184.17 120.33 184.66 117.29 183.25 C 122.59 175.61 127.53 167.68 133.27 160.36 Z" />
</g>
</svg>

<?xml version="1.0" encoding="utf-8"?>
<!-- Generator: Adobe Illustrator 26.0.3, SVG Export Plug-In . SVG Version: 6.00 Build 0)  -->
<svg version="1.1" id="Layer_1" xmlns="http://www.w3.org/2000/svg" xmlns:xlink="http://www.w3.org/1999/xlink" x="0px" y="0px"
	 viewBox="0 0 250 250" style="enable-background:new 0 0 250 250;" xml:space="preserve">
<style type="text/css">
	.st0{fill:#F4B12E;}
</style>
<g id="_x23_f4b12eff">
	<path class="st0" d="M36.5,66.3c2.2-0.3,4.3-0.5,6.5-0.6c26,0.1,52,0,78,0c16,1,32,0.2,48.1,0.6c-4.9,7.9-10.5,15.3-15.6,23.1
		c-39,0.3-78,0.2-117,0.1C36.4,81.8,36.5,74.1,36.5,66.3z"/>
	<path class="st0" d="M197.3,66.4c5.4-0.2,10.8-0.2,16.2,0c0,7.7,0,15.5,0,23.2c-10.7,0.2-21.5,0-32.2,0.1
		C186.5,81.8,192,74.1,197.3,66.4z"/>
	<path class="st0" d="M36.5,113.5c33.5,0,66.9,0,100.4,0c-5.2,7.7-10.2,15.6-15.9,23c-28.2,0.2-56.4,0.2-84.6,0
		C36.5,128.8,36.4,121.2,36.5,113.5z"/>
	<path class="st0" d="M165.4,113.5c16,0,32.1,0,48.1,0c0.1,7.7,0,15.3,0.1,23c-21.2,0.2-42.4,0.3-63.6-0.1c1.6-4.2,4.6-7.7,7.1-11.4
		C159.8,121.2,162.2,117,165.4,113.5z"/>
	<path class="st0" d="M36.5,160.4c22.8-0.2,45.6-0.1,68.4-0.1c-5.4,7.8-10.3,16-16.3,23.2c-6.1,1.3-12.4,0.3-18.6,0.6
		c-11.2-0.3-22.4,0.6-33.5-0.5C36.5,175.9,36.4,168.2,36.5,160.4z"/>
	<path class="st0" d="M133.3,160.4c26.8,0,53.5-0.1,80.3,0.1c0,7.8,0,15.5,0,23.3c-2.2,0.3-4.3,0.5-6.5,0.6c-26.7,0-53.3-0.1-80,0
		c-3.2-0.1-6.7,0.4-9.7-1C122.6,175.6,127.5,167.7,133.3,160.4z"/>
</g>
</svg>
